X:1
T:Who Killed Cock Robin
M:4/4
L:1/8
K:F
 F2 FF FF z2| F2 FF FF z F| F2 FF FF z2| G2 FG AF z2| A2 AA A4| A2 AA A2 z A|\
 A2 AA A2 z2| B2 ABc-A CC| F2 FF F2 FE| ED DD DD DD| G2 GG G2 F2| F2 E2 EE CC|\
 F4 A2 F2| D4 B2- G2| A4 G4| F F- F6|
